;FLAVOR:Marlin
;TIME:1457
;Filament used: 0.517931m
;Layer height: 0.1
;MINX:89.196
;MINY:90.976
;MINZ:0.24
;MAXX:130.807
;MAXY:128.513
;MAXZ:5.54
;TARGET_MACHINE.NAME:Creality K1 Max
;Generated with Cura_SteamEngine 5.9.0
M82 ;absolute extrusion mode
;Nozzle diameter = 0.4
;Filament type = PLA
;Filament name = PLA
;Filament weight = [1.5447557324218748]; M190 S50
; M109 S200
M140 S0
M104 S0
START_PRINT EXTRUDER_TEMP=200 BED_TEMP=50
G92 E0
G92 E0
G1 F2400 E-0.5
;LAYER_COUNT:48
;LAYER:-5
M107
G0 F15000 X91.46 Y99.206 Z0.24
;TYPE:SUPPORT-INTERFACE
G1 F2400 E0
G1 F4500 X91.158 Y99.49 E0.03309
G1 X90.959 Y99.734 E0.05823
G1 X90.801 Y99.97 E0.0809
G1 X90.569 Y100.379 E0.11843
G1 X90.422 Y100.739 E0.14947
G1 X90.307 Y101.224 E0.18926
G1 X90.259 Y101.598 E0.21936
G1 X90.245 Y101.953 E0.24772
G1 X90.27 Y102.293 E0.27493
G1 X90.332 Y102.678 E0.30606
G1 X90.432 Y103.037 E0.33581
G1 X90.565 Y103.378 E0.36503
G1 X90.734 Y103.701 E0.39412
G1 X90.978 Y104.077 E0.4299
G1 X91.669 Y104.896 E0.51544
G1 X92.011 Y105.431 E0.56613
G1 X92.319 Y106.08 E0.62347
G1 X92.53 Y106.723 E0.67749
G1 X92.657 Y107.384 E0.73122
G1 X92.696 Y108.08 E0.78686
G1 X92.656 Y108.756 E0.84092
G1 X92.525 Y109.434 E0.89604
G1 X92.487 Y109.559 E0.90647
G1 X92.451 Y109.809 E0.92663
G1 X92.437 Y110.067 E0.94726
G1 X92.447 Y110.581 E0.9883
G1 X92.536 Y110.926 E1.01674
G1 X92.677 Y111.253 E1.04516
G1 X92.978 Y111.599 E1.08177
G1 X93.861 Y112.488 E1.18179
G1 X94.448 Y113.197 E1.25527
G1 X94.844 Y113.865 E1.31725
G1 X95.096 Y114.458 E1.36869
G1 X95.279 Y115.08 E1.42044
G1 X95.387 Y115.757 E1.47517
G1 X95.412 Y116.446 E1.5302
G1 X95.336 Y117.219 E1.5922
G1 X95.299 Y117.426 E1.60899
G1 X95.284 Y117.688 E1.62994
G1 X95.284 Y119.559 E1.77929
G1 X95.381 Y120.086 E1.82206
G1 X95.51 Y120.364 E1.84653
G1 X95.636 Y120.576 E1.86621
G1 X95.937 Y121.158 E1.91851
G1 X96.185 Y121.836 E1.97614
G1 X96.326 Y122.466 E2.02768
G1 X96.424 Y123.51 E2.11138
G1 X96.53 Y123.911 E2.14449
G1 X96.759 Y124.312 E2.18135
G1 X96.979 Y124.581 E2.20909
G1 X97.261 Y124.804 E2.23779
G1 X97.55 Y124.97 E2.26439
G1 X97.893 Y125.104 E2.29379
G1 X98.452 Y125.166 E2.33868
G1 X99.126 Y125.148 E2.3925
G1 X99.768 Y125.109 E2.44384
G1 X100.705 Y124.993 E2.51921
G1 X101.37 Y124.861 E2.57333
G1 X102.074 Y124.677 E2.63141
G1 X102.751 Y124.429 E2.68897
G1 X103.037 Y124.302 E2.71395
G1 X103.349 Y124.147 E2.74175
G1 X103.715 Y123.933 E2.7756
G1 X104.181 Y123.678 E2.818
G1 X104.894 Y123.379 E2.87972
G1 X104.914 Y123.395 E2.88176
G1 X105.46 Y123.247 E2.92692
G1 X106.112 Y123.156 E2.97947
G1 X106.807 Y123.148 E3.03495
G1 X107.459 Y123.221 E3.08732
G1 X108.193 Y123.402 E3.14767
G1 X108.806 Y123.643 E3.20025
G1 X109.387 Y123.956 E3.25293
G1 X109.952 Y124.361 E3.30842
G1 X110.429 Y124.802 E3.36027
G1 X110.869 Y125.325 E3.41483
G1 X111.257 Y125.929 E3.47213
G1 X111.485 Y126.256 E3.50396
G1 X111.754 Y126.547 E3.53559
G1 X112.055 Y126.805 E3.56723
G1 X112.313 Y126.979 E3.59207
G1 X112.688 Y127.172 E3.62574
G1 X112.99 Y127.295 E3.65177
G1 X113.339 Y127.384 E3.68052
G1 X113.654 Y127.437 E3.70602
G1 X113.918 Y127.447 E3.72711
G1 X114.329 Y127.429 E3.75995
G1 X114.726 Y127.362 E3.79208
G1 X115.099 Y127.244 E3.82331
G1 X115.354 Y127.133 E3.84551
G1 X115.713 Y126.933 E3.87832
G1 X115.946 Y126.766 E3.9012
G1 X116.236 Y126.509 E3.93213
G1 X116.456 Y126.286 E3.95714
G1 X116.676 Y125.974 E3.98761
G1 X116.861 Y125.641 E4.01802
G1 X117.013 Y125.253 E4.05128
G1 X117.087 Y125.008 E4.07171
G1 X117.107 Y124.903 E4.08025
G1 X117.317 Y124.194 E4.13927
G1 X117.588 Y123.596 E4.19168
G1 X117.946 Y123.006 E4.24677
G1 X118.369 Y122.47 E4.30127
G1 X118.838 Y122.015 E4.35343
G1 X119.441 Y121.557 E4.41388
G1 X119.655 Y121.357 E4.43726
G1 X119.848 Y121.096 E4.46317
G1 X120 Y120.783 E4.49094
G1 X120.145 Y120.022 E4.55278
G1 X120.346 Y119.363 E4.60778
G1 X120.625 Y118.738 E4.66242
G1 X120.993 Y118.137 E4.71867
G1 X121.451 Y117.578 E4.77636
G1 X121.914 Y117.136 E4.82745
G1 X122.442 Y116.744 E4.87994
G1 X123.014 Y116.417 E4.93254
G1 X123.673 Y116.144 E4.98948
G1 X124.328 Y115.966 E5.04366
G1 X125 Y115.875 E5.09779
G1 X125.711 Y115.868 E5.15455
G1 X125.985 Y115.884 E5.17646
G1 X126.575 Y115.898 E5.22357
G1 X127.02 Y115.849 E5.2593
G1 X127.394 Y115.747 E5.29025
G1 X127.865 Y115.481 E5.33343
G1 X128.134 Y115.207 E5.36408
G1 X128.298 Y114.996 E5.38541
G1 X128.442 Y114.746 E5.40844
G1 X128.605 Y114.256 E5.44966
G1 X128.646 Y113.731 E5.4917
G1 X128.722 Y113.103 E5.54219
G1 X128.892 Y112.416 E5.59869
G1 X129.137 Y111.782 E5.65294
G1 X129.569 Y110.993 E5.72475
G1 X129.709 Y110.637 E5.75528
G1 X129.74 Y110.174 E5.79232
G1 X129.74 Y108.298 E5.94207
G1 X129.654 Y107.794 E5.98289
G1 X129.482 Y107.432 E6.01488
G1 X129.389 Y107.286 E6.0287
G1 X129.096 Y106.724 E6.07929
G1 X128.86 Y106.09 E6.13329
G1 X128.705 Y105.427 E6.18764
G1 X128.592 Y104.308 E6.27742
G1 X128.491 Y103.945 E6.30749
G1 X128.304 Y103.608 E6.33826
G1 X128.059 Y103.286 E6.37056
G1 X127.729 Y103.034 E6.4037
G1 X127.483 Y102.893 E6.42634
G1 X127.143 Y102.77 E6.4552
G1 X126.459 Y102.661 E6.51049
G1 X125.816 Y102.498 E6.56344
G1 X125.196 Y102.258 E6.61651
G1 X124.607 Y101.947 E6.66967
G1 X124.022 Y101.525 E6.72725
G1 X123.527 Y101.062 E6.78136
G1 X123.085 Y100.54 E6.83596
G1 X122.714 Y99.948 E6.89173
G1 X122.424 Y99.338 E6.94564
G1 X122.206 Y98.663 E7.00226
G1 X122.087 Y98.028 E7.05383
G1 X122.044 Y97.382 E7.10551
G1 X122.044 Y95.802 E7.23164
G1 X121.968 Y95.301 E7.27209
G1 X121.771 Y94.875 E7.30955
G1 X121.54 Y94.466 E7.34705
G1 X121.352 Y94.169 E7.3751
G1 X121.111 Y93.881 E7.40508
G1 X120.754 Y93.497 E7.44693
G1 X120.431 Y93.186 E7.48273
G1 X119.905 Y92.907 E7.53026
G1 X119.186 Y92.474 E7.59725
G1 X118.343 Y91.78 E7.68441
G1 X118.024 Y91.64 E7.71222
G1 X117.73 Y91.564 E7.73646
G1 X117.317 Y91.558 E7.76943
G1 X116.828 Y91.686 E7.80978
G1 X116.4 Y91.85 E7.84637
G1 X116.152 Y91.978 E7.86865
G1 X115.649 Y92.201 E7.91257
G1 X115.02 Y92.406 E7.96538
G1 X114.381 Y92.528 E8.01731
G1 X113.591 Y92.579 E8.0805
G1 X113.233 Y92.626 E8.10932
G1 X112.93 Y92.704 E8.1343
G1 X105.116 Y95.314 E8.79192
G1 X104.305 Y95.518 E8.85867
G1 X103.851 Y95.565 E8.89511
G1 X103.273 Y95.666 E8.94194
G1 X102.978 Y95.802 E8.96787
G1 X102.712 Y95.999 E8.9943
G1 X102.529 Y96.185 E9.01513
G1 X101.994 Y96.669 E9.07271
G1 X101.472 Y97.032 E9.12347
G1 X100.833 Y97.367 E9.18106
G1 X100.255 Y97.579 E9.2302
G1 X99.525 Y97.753 E9.29011
G1 X98.861 Y97.82 E9.34338
G1 X98.205 Y97.803 E9.39576
G1 X96.777 Y97.68 E9.51017
G1 X96.483 Y97.673 E9.53365
G1 X96.188 Y97.689 E9.55723
G1 X95.918 Y97.762 E9.57956
G1 X95.799 Y97.818 E9.59006
G1 X95.056 Y98.093 E9.6533
G1 X94.357 Y98.247 E9.71043
G1 X93.449 Y98.33 E9.78322
G1 X93.087 Y98.385 E9.81244
G1 X92.665 Y98.499 E9.84734
G1 X92.257 Y98.676 E9.88284
G1 X91.811 Y98.921 E9.92346
G1 X91.46 Y99.206 E9.95955
G0 F15000 X92.313 Y99.102
G1 F4500 X117.044 Y123.832 E12.75134
G1 F2400 E12.25134
G0 F15000 X117.897 Y122.422
G1 F2400 E12.75134
G1 F4500 X94.143 Y98.668 E15.4329
G1 F2400 E14.9329
G0 F15000 X95.932 Y98.195
G1 F2400 E15.4329
G1 F4500 X119.071 Y121.334 E18.04503
G1 F2400 E17.54503
G0 F15000 X119.797 Y119.797
G1 F2400 E18.04503
G1 F4500 X98.204 Y98.204 E20.48263
G1 F2400 E19.98263
G0 F15000 X100.253 Y97.99
G1 F2400 E20.48263
G1 F4500 X120.478 Y118.215 E22.76581
G1 F2400 E22.26581
G0 F15000 X121.502 Y116.977
G1 F2400 E22.76581
G1 F4500 X101.809 Y97.284 E24.98892
G1 F2400 E24.48892
G0 F15000 X103.041 Y96.253
G1 F2400 E24.98892
G1 F4500 X122.845 Y116.057 E27.22457
G1 F2400 E26.72457
G0 F15000 X124.579 Y115.529
G1 F2400 E27.22457
G1 F4500 X104.846 Y95.795 E29.45226
G1 F2400 E28.95226
G0 F15000 X106.565 Y95.252
G1 F2400 E29.45226
G1 F4500 X126.786 Y115.472 E31.73492
G1 F2400 E31.23492
G0 F15000 X128.097 Y114.521
G1 F2400 E31.73492
G1 F4500 X108.262 Y94.685 E33.97412
G1 F2400 E33.47412
G0 F15000 X109.958 Y94.119
G1 F2400 E33.97412
G1 F4500 X128.44 Y112.6 E36.06048
G1 F2400 E35.56048
G0 F15000 X129.107 Y111.005
G1 F2400 E36.06048
G1 F4500 X111.654 Y93.552 E38.03072
G1 F2400 E37.53072
G0 F15000 X113.375 Y93.011
G1 F2400 E38.03072
G1 F4500 X129.34 Y108.976 E39.83299
G1 F2400 E39.33299
G0 F15000 X128.367 Y105.74
G1 F2400 E39.83299
G1 F4500 X125.386 Y102.758 E40.16957
G1 F2400 E39.66957
G0 F15000 X125.626 Y101.286
G0 X123.42 Y98.957
G0 X122.025 Y99.397
G1 F2400 E40.16957
G1 F4500 X115.346 Y92.719 E40.92349
G1 F2400 E40.42349
G0 F15000 X116.956 Y92.066
G1 F2400 E40.92349
G1 F4500 X121.645 Y96.755 E41.45283
G1 F2400 E40.95283
G0 F15000 X123.11 Y97.32
G0 X129.035 Y102.8
G0 X129.522 Y103.67
G0 X130.704 Y107.607
G0 X130.807 Y108.4
G0 X130.775 Y110.645
G0 X129.399 Y115.219
G0 X128.932 Y115.918
G0 X118.029 Y125.572
G0 X116.47 Y125.521
G1 F2400 E41.45283
G1 F4500 X91.137 Y100.188 E44.31263
G1 F2400 E43.81263
G0 F15000 X90.647 Y101.961
G1 F2400 E44.31263
G1 F4500 X115.358 Y126.672 E47.10223
G1 F2400 E46.60223
G0 F15000 X113.412 Y126.989
G1 F2400 E47.10223
G1 F4500 X92.852 Y106.429 E49.42322
G1 F2400 E48.92322
G0 F15000 X93.041 Y108.88
G1 F2400 E49.42322
G1 F4500 X106.92 Y122.759 E50.99
G1 F2400 E50.49
G0 F15000 X104.887 Y122.988
G1 F2400 E50.99
G1 F4500 X94.346 Y112.448 E52.1799
G1 F2400 E51.6799
G0 F15000 X95.801 Y116.166
G1 F2400 E52.1799
G1 F4500 X103.33 Y123.695 E53.02984
G1 F2400 E52.52984
G0 F15000 X101.727 Y124.354
G1 F2400 E53.02984
G1 F4500 X95.684 Y118.311 E53.71203
G1 F2400 E53.21203
G0 F15000 X96.419 Y121.309
G1 F2400 E53.71203
G1 F4500 X99.81 Y124.7 E54.09483
M104 S200
G1 F2400 E53.59483
G0 F300 X99.81 Y124.7 Z0.39
G0 F15000 X100.512 Y126.099
G0 X113.626 Y128.499
G0 X114.566 Y128.474
G0 X115.516 Y128.227
G0 X116.377 Y127.774
G0 X117.27 Y126.973
G0 X117.557 Y126.528
G0 X117.884 Y125.954
G0 X116.591 Y125.239
;TIME_ELAPSED:21.335615
;LAYER:-4
;TYPE:SUPPORT
G1 F2400 E54.09483
G1 F4500 X114.959 Y126.872 E54.21001
G1 X115.282 Y126.725 E54.22772
G1 X115.614 Y126.53 E54.24693
G1 X116.099 Y126.1 E54.27926
G1 X116.405 Y125.671 E54.30555
G1 X116.603 Y125.212 E54.33049
G1 X116.693 Y124.937 E54.34493
G1 X116.722 Y124.802 E54.35182
G1 X116.946 Y124.055 E54.39073
G1 X117.225 Y123.426 E54.42505
G1 X117.58 Y122.836 E54.45941
G1 X113.426 Y126.991 E54.75253
G1 X113.098 Y126.907 E54.76942
G1 X112.85 Y126.81 E54.78271
G1 X112.417 Y126.585 E54.80705
G1 X120.132 Y118.87 E55.35139
G1 X120.269 Y118.562 E55.36821
G1 X120.68 Y117.892 E55.40742
G1 X121.113 Y117.359 E55.44168
G1 X121.676 Y116.815 E55.48074
G1 X122.273 Y116.378 E55.51765
G1 X122.868 Y116.044 E55.55169
G1 X123.02 Y115.982 E55.55988
G1 F2400 E55.05988
G0 F15000 X124.03 Y117.15
G0 X127.277 Y116.886
G0 X128.132 Y116.563
G0 X128.785 Y116.078
G0 X129.31 Y115.383
G0 X129.571 Y114.69
G0 X129.711 Y113.799
G0 X128.265 Y113.566
G1 F2400 E55.55988
G1 F4500 X126.419 Y115.412 E55.69013
G1 X126.77 Y115.362 E55.70781
G1 X126.77 Y115.504 E55.7149
G1 X127.245 Y115.376 E55.73944
G1 X127.525 Y115.219 E55.75546
G1 X127.779 Y115.02 E55.77156
G1 X127.969 Y114.772 E55.78714
G1 X128.12 Y114.51 E55.80223
G1 X128.216 Y114.148 E55.82091
G1 X128.252 Y113.67 E55.84483
G1 X128.333 Y113.017 E55.87766
G1 X128.504 Y112.322 E55.91336
G1 X128.757 Y111.659 E55.94877
G1 X124.992 Y115.425 E56.21444
G1 X124.898 Y115.418 E56.21915
G1 X124.898 Y115.489 E56.22269
G1 X124.253 Y115.575 E56.25515
G1 X123.541 Y115.768 E56.29196
G1 X123.02 Y115.982 E56.32006
G1 X129.342 Y109.66 E56.76611
G1 X129.343 Y108.245 E56.8367
G1 X111.712 Y125.876 E58.08067
G1 X111.153 Y125.021 E58.13163
G1 X128.922 Y107.252 E59.38533
G1 X128.737 Y106.895 E59.40539
G1 X128.498 Y106.261 E59.43919
G1 X110.468 Y124.292 E60.71134
G1 X110.22 Y124.062 E60.72822
G1 X109.676 Y123.669 E60.7617
G1 X128.268 Y105.077 E62.07346
G1 X128.198 Y104.38 E62.10841
G1 X128.122 Y104.099 E62.12293
G1 X128.018 Y103.913 E62.13357
G1 X108.743 Y123.188 E63.49352
G1 X108.3 Y123.017 E63.51721
G1 X107.658 Y122.859 E63.5502
G1 X127.29 Y103.227 E64.93534
G1 X126.937 Y103.136 E64.95353
G1 X126.404 Y103.059 E64.9804
G1 X126.115 Y102.987 E64.99525
G1 X106.348 Y122.754 E66.38992
G1 X106.13 Y122.756 E66.4008
G1 X105.351 Y122.863 E66.44003
G1 X104.628 Y123.06 E66.47741
G1 X125.054 Y102.634 E67.91858
G1 X124.398 Y102.287 E67.9556
G1 X124.158 Y102.116 E67.97031
G1 X101.998 Y124.276 E69.53381
G1 X101.394 Y124.362 E69.56425
G1 X101.394 Y124.444 E69.56834
G1 X101.272 Y124.475 E69.57462
G1 X101.272 Y124.199 E69.58839
G1 X100.452 Y124.565 E69.63319
G1 X100.452 Y124.408 E69.64102
G1 X123.384 Y101.476 E71.259
G1 X123.224 Y101.329 E71.26984
G1 X122.724 Y100.722 E71.30908
G1 X98.805 Y124.641 E72.99669
G1 X98.339 Y124.524 E73.02066
G1 X98.339 Y124.756 E73.03224
G1 X98.076 Y124.723 E73.04546
G1 X97.741 Y124.619 E73.06296
G1 X97.53 Y124.502 E73.075
G1 X122.211 Y99.82 E74.81641
G1 X122.047 Y99.473 E74.83556
G1 X121.827 Y98.79 E74.87136
G1 X96.895 Y123.722 E76.63044
G1 X96.81 Y123.409 E76.64662
G1 X96.792 Y123.077 E76.66321
G1 X96.73 Y122.473 E76.6935
G1 X121.646 Y97.557 E78.45146
G1 X121.644 Y96.145 E78.52191
G1 X96.435 Y121.354 E80.30054
G1 X96.292 Y120.969 E80.32103
G1 X95.988 Y120.387 E80.35379
G1 X121.378 Y94.996 E82.14522
G1 X121.201 Y94.675 E82.16351
G1 X120.989 Y94.358 E82.18254
G1 X120.813 Y94.147 E82.19625
G1 X95.686 Y119.275 E83.96913
G1 X95.686 Y117.861 E84.03967
G1 X120.091 Y93.455 E85.76161
G1 X119.725 Y93.265 E85.78219
G1 X119.189 Y92.943 E85.81338
G1 X95.809 Y116.323 E87.46297
G1 X95.787 Y115.716 E87.49327
G1 X95.678 Y115.04 E87.52743
G1 X118.381 Y92.337 E89.12925
G1 X118.105 Y92.113 E89.14698
G1 X117.757 Y91.964 E89.16587
G1 X117.34 Y91.963 E89.18668
G1 X95.327 Y113.976 E90.73981
G1 X95.198 Y113.675 E90.75615
G1 X94.832 Y113.057 E90.79198
G1 X115.087 Y92.802 E92.22108
G1 X114.434 Y92.928 E92.25426
G1 X113.888 Y92.965 E92.28156
G1 X113.416 Y93.059 E92.30557
G1 X94.207 Y112.268 E93.66087
G1 X93.501 Y111.56 E93.71076
G1 X111.429 Y93.632 E94.97567
G1 X109.308 Y94.339 E95.08721
G1 X92.903 Y110.744 E96.24468
G1 X92.857 Y110.569 E96.2537
G1 X92.836 Y110.256 E96.26935
G1 X92.846 Y109.89 E96.28762
G1 X92.965 Y109.267 E96.31926
G1 X107.186 Y95.046 E97.32263
G1 X105.065 Y95.754 E97.43419
G1 X93.078 Y107.74 E98.2799
G1 X93.051 Y107.315 E98.30115
G1 X92.896 Y106.508 E98.34214
G1 X103.286 Y96.118 E99.07522
G1 X102.948 Y96.333 E99.0952
G1 X102.819 Y96.466 E99.10444
G1 X102.29 Y96.949 E99.14018
G1 X101.687 Y97.374 E99.17699
G1 X100.993 Y97.735 E99.21602
G1 X100.297 Y97.988 E99.25296
G1 X99.915 Y98.075 E99.27251
G1 X92.487 Y105.502 E99.79656
G1 X92.359 Y105.233 E99.81142
G1 X91.963 Y104.613 E99.84812
G1 X98.356 Y98.22 E100.29918
G1 X97.056 Y98.105 E100.36429
G1 X91.307 Y103.855 E100.76995
G1 X91.071 Y103.489 E100.79168
G1 X90.925 Y103.205 E100.80761
G1 X90.819 Y102.928 E100.82241
G1 X95.216 Y98.531 E101.13264
G1 X94.852 Y98.702 E101.1527
G1 X94.852 Y98.547 E101.16044
G1 X94.408 Y98.646 E101.18313
G1 X93.617 Y98.716 E101.22275
G1 X90.656 Y101.677 E101.43166
G1 X90.705 Y101.286 E101.45132
G1 X90.793 Y100.909 E101.47064
G1 X90.928 Y100.562 E101.48921
G1 X91.145 Y100.179 E101.51118
G1 X91.3 Y99.947 E101.5251
G1 X91.466 Y99.749 E101.53799
G1 X91.811 Y99.427 E101.56153
G1 X92.142 Y99.196 E101.58167
G1 X92.437 Y99.031 E101.59853
G1 X92.729 Y98.907 E101.61436
G1 X93.101 Y98.79 E101.63381
G1 X93.492 Y98.727 E101.65357
G1 F2400 E101.15357
G0 F15000 X93.623 Y97.249
G0 X92.626 Y97.404
G0 X91.509 Y97.867
G0 X90.739 Y98.424
G0 X90.045 Y99.182
G0 X89.447 Y100.312
G0 X89.196 Y101.548
G0 X89.261 Y102.751
G0 X91.562 Y111.364
G0 X95.645 Y124.51
G0 X96.201 Y125.304
G0 X96.931 Y125.85
G0 X97.832 Y126.169
G0 X113.908 Y128.513
G0 X114.905 Y128.412
G0 X115.816 Y128.097
G0 X116.636 Y127.58
G0 X117.328 Y126.902
G0 X119.989 Y122.476
G0 X119.107 Y121.309
